kora/apps/scalable/zevdocs.svg

<svg xmlns="http://www.w3.org/2000/svg" width="48" height="48" version="1">
 <path style="opacity:0.2" d="M 32,15.526315 V 7.1052626 H 16 V 15.526315 L 5.1753713,41.842105 C 4.5419593,43.421049 5.7032145,45 7.3923043,45 H 40.646335 c 1.689098,0 2.744776,-1.684206 2.216933,-3.157895 z"/>
 <path style="fill:#9ccc65" d="M 32,14.526315 V 6.1052626 H 16 V 14.526315 L 5.1753713,40.842105 C 4.5419593,42.421049 5.7032145,44 7.3923043,44 H 40.646335 c 1.689098,0 2.744776,-1.684206 2.216933,-3.157895 z"/>
 <path style="opacity:0.1" d="M 32.800003,9 H 15.199998 C 13.990003,9 13,8.1000005 13,6.9999996 13,5.9000002 13.990003,5 15.199998,5 H 32.800003 C 34.009998,5 35,5.9000002 35,6.9999996 35,8.1000005 34.009998,9 32.800003,9 Z"/>
 <path style="fill:#75aa38" d="M 32.800003,8 H 15.199998 C 13.990003,8 13,7.1000005 13,5.9999996 13,4.9000002 13.990003,4 15.199998,4 H 32.800003 C 34.009998,4 35,4.9000002 35,5.9999996 35,7.1000005 34.009998,8 32.800003,8 Z"/>
 <path style="opacity:0.1" d="M 23.477235,29.881362 C 18.52723,29.060309 15,24.00718 15,24.00718 c 0,0 4.572757,-3.709595 9.522765,-2.888541 C 29.472763,21.939691 33,26.992829 33,26.992829 c 0,0 -4.572757,3.709586 -9.522765,2.888533 z"/>
 <path style="fill:#2e7d32" d="M 23.477235,28.881362 C 18.52723,28.060309 15,23.00718 15,23.00718 c 0,0 4.572757,-3.709595 9.522765,-2.888541 C 29.472763,20.939691 33,25.992829 33,25.992829 c 0,0 -4.572757,3.709586 -9.522765,2.888533 z"/>
 <path style="opacity:0.1" d="M 25.971637,41.979775 C 19.806194,41.632872 14,36.908559 14,36.908559 c 0,0 3.975601,-4.27387 10.028372,-3.883336 C 30.081135,33.415756 36,38.09643 36,38.09643 c 0,0 -3.862921,4.230239 -10.028363,3.883345 z"/>
 <path style="fill:#388e3c" d="M 25.971637,40.979775 C 19.806194,40.632872 14,35.908559 14,35.908559 c 0,0 3.975601,-4.27387 10.028372,-3.883336 C 30.081135,32.415756 36,37.09643 36,37.09643 c 0,0 -3.862921,4.230239 -10.028363,3.883345 z"/>
 <path style="opacity:0.1" d="m 19.170982,29.324018 c -5.308251,2.790946 -5.170648,7.644702 -5.170648,7.644702 0,0 8.676157,0.476362 13.829027,-2.288869 C 32.982223,31.914628 33,27.03515 33,27.03515 c 0,0 -8.520766,-0.502077 -13.829018,2.288868 z"/>
 <path style="fill:#43a047" d="m 19.170982,28.324018 c -5.308251,2.790946 -5.170648,7.644702 -5.170648,7.644702 0,0 8.676157,0.476362 13.829027,-2.288869 C 32.982223,30.914628 33,26.03515 33,26.03515 c 0,0 -8.520766,-0.502077 -13.829018,2.288868 z"/>
 <path style="opacity:0.2;fill:#ffffff" d="M 15.199219,4 C 13.989224,4 13,4.9000006 13,6 13,6.1732662 13.03201,6.3393939 13.07813,6.5 13.324784,5.6409798 14.179816,5 15.199219,5 h 17.601562 c 1.019403,0 1.874435,0.6409798 2.121094,1.5 C 34.967991,6.3393939 35,6.1732662 35,6 35,4.9000006 34.010776,4 32.800781,4 Z"/>
</svg>

<svg clip-rule="evenodd" fill-rule="evenodd" stroke-linejoin="round" stroke-miterlimit="2" viewBox="0 0 48 48" xmlns="http://www.w3.org/2000/svg">
 <linearGradient id="a" x2="1" gradientTransform="matrix(0 -33.6872 33.6872 0 923.28 40.4502)" gradientUnits="userSpaceOnUse">
  <stop stop-color="#d5ddde" offset="0"/>
  <stop stop-color="#fff" offset="1"/>
 </linearGradient>
 <path d="m39.44 45.668h-30.88c-3.438 0-6.228-2.79-6.228-6.228v-30.88c0-3.438 2.79-6.228 6.228-6.228h30.88c3.438 0 6.228 2.79 6.228 6.228v30.88c0 3.438-2.79 6.228-6.228 6.228z" fill="url(#a)"/>
 <g transform="matrix(.797696 0 0 .797696 4.8553 4.8553)" fill-rule="nonzero">
  <path d="m32 14.526v-8.421h-16v8.421l-10.825 26.316c-.633 1.579.528 3.158 2.217 3.158h33.254c1.689 0 2.745-1.684 2.217-3.158z" fill="#9ccc65"/>
  <path d="m32.8 8h-17.6c-1.21 0-2.2-.9-2.2-2s.99-2 2.2-2h17.6c1.21 0 2.2.9 2.2 2s-.99 2-2.2 2z" fill="#75aa38"/>
  <path d="m23.477 28.881c-4.95-.821-8.477-5.874-8.477-5.874s4.573-3.709 9.523-2.888 8.477 5.874 8.477 5.874-4.573 3.709-9.523 2.888z" fill="#2e7d32"/>
  <path d="m25.972 40.98c-6.166-.347-11.972-5.071-11.972-5.071s3.976-4.274 10.028-3.884c6.053.391 11.972 5.071 11.972 5.071s-3.863 4.231-10.028 3.884z" fill="#388e3c"/>
  <path d="m19.171 28.324c-5.308 2.791-5.171 7.645-5.171 7.645s8.676.476 13.829-2.289 5.171-7.645 5.171-7.645-8.521-.502-13.829 2.289z" fill="#43a047"/>
 </g>
</svg>
